img/services-icons/magnifier.svg

<svg width="43" height="39" viewBox="0 0 43 39" fill="none" xmlns="http://www.w3.org/2000/svg">
<path d="M33.0298 2.54004H29.0298C28.4798 2.54004 28.0298 2.99004 28.0298 3.54004V18.48H34.0298V3.54004C34.0298 2.99004 33.5798 2.54004 33.0298 2.54004V2.54004Z" fill="#0158F3"/>
<path d="M31.7198 21.83C29.8298 23.72 27.3198 24.76 24.6498 24.76C21.9798 24.76 19.4698 23.72 17.5798 21.83C13.6798 17.93 13.6798 11.59 17.5798 7.69001C19.4698 5.80001 21.9798 4.76001 24.6498 4.76001C24.9398 4.76001 25.2398 4.78001 25.5298 4.80001V0.80001C25.2398 0.78001 24.9498 0.76001 24.6498 0.76001C21.0698 0.76001 17.4798 2.13001 14.7498 4.86001C9.94979 9.66001 9.36979 17.08 12.9998 22.52L10.2498 25.27L9.59979 24.62C9.39979 24.42 9.08979 24.42 8.88979 24.62L0.759785 32.76C0.369785 33.15 0.369785 33.78 0.759785 34.17L4.52979 37.94C4.91979 38.33 5.54978 38.33 5.93978 37.94L14.0698 29.81C14.2698 29.61 14.2698 29.3 14.0698 29.1L13.4198 28.45L16.0698 25.8C18.5898 27.76 21.6098 28.75 24.6398 28.75C28.2198 28.75 31.8098 27.38 34.5398 24.65C35.6398 23.55 36.5098 22.3 37.1698 20.97H32.4598C32.2298 21.26 31.9798 21.55 31.7098 21.82L31.7198 21.83ZM20.5298 10.54C19.9798 10.54 19.5298 10.99 19.5298 11.54V18.48H25.5298V11.54C25.5298 10.99 25.0798 10.54 24.5298 10.54H20.5298ZM41.5298 7.54001H37.5298C36.9798 7.54001 36.5298 7.99001 36.5298 8.54001V18.48H42.5298V8.54001C42.5298 7.99001 42.0798 7.54001 41.5298 7.54001Z" fill="#0158F3"/>
</svg>

<svg width="43" height="39" fill="none" xmlns="http://www.w3.org/2000/svg"><path d="M33.03 2.54h-4c-.55 0-1 .45-1 1v14.94h6V3.54c0-.55-.45-1-1-1z" fill="#0158F3"/><path d="M31.72 21.83a9.932 9.932 0 01-7.07 2.93c-2.67 0-5.18-1.04-7.07-2.93-3.9-3.9-3.9-10.24 0-14.14a9.932 9.932 0 017.95-2.89v-4c-.29-.02-.58-.04-.88-.04-3.58 0-7.17 1.37-9.9 4.1-4.8 4.8-5.38 12.22-1.75 17.66l-2.75 2.75-.65-.65c-.2-.2-.51-.2-.71 0L.76 32.76a.996.996 0 000 1.41l3.77 3.77c.39.39 1.02.39 1.41 0l8.13-8.13c.2-.2.2-.51 0-.71l-.65-.65 2.65-2.65a13.97 13.97 0 0018.47-1.15c1.1-1.1 1.97-2.35 2.63-3.68h-4.71c-.23.29-.48.58-.75.85l.01.01zM20.53 10.54c-.55 0-1 .45-1 1v6.94h6v-6.94c0-.55-.45-1-1-1h-4zm21-3h-4c-.55 0-1 .45-1 1v9.94h6V8.54c0-.55-.45-1-1-1z" fill="#0158F3"/></svg>
